X:1
T:Meistersinger Act 3 Scene 2 (Vocal Score)
T:Meistersinger Act 3 Scene 2 Part 1 (Vocal Score)
T:"Gruß gott, mein Junker"
T:WWV 96, Richard Wagner
T:Made with Musescore 2.2 by M. R. Started: April 5. 2018 Finished: June 6. 2018
C:WWV 96, Richard Wagner
%%score 1 2 { ( 3 7 8 9 ) | ( 4 5 6 10 ) }
L:1/8
Q:1/4=74
M:4/4
K:Eb
V:1 treble-8 nm="Walther" snm="W."
V:2 bass nm="Hans Sachs" snm="H. S."
V:3 treble nm="Piano" snm="Pno."
V:7 treble 
V:8 treble 
V:9 treble 
V:4 bass 
V:5 bass 
V:6 bass 
V:10 bass 
V:1
"^a tempo" z8 | z8 | z8 | z8 ||[Q:1/4=30] z8[Q:1/4=84]"^Ziemlich bewegt" | z8 | z8 | z8 | z8 | %9
 z4 z2 z B | e2 G z z2 A B | c2- c z z2 B2 | A2- A z z4[Q:1/4=90]"^Lebhafter" | z8 | z8 | %15
[Q:1/4=80]"^Etwas zurückhaltend" z2!p! G2 G2 G G | G3 G G3 G | ^G8 | z8 | z8 | z8 | z2 G2 G3 =A | %22
 B2 F z F3 F | F4 z2 F2 | ^F2 F2 G3 _d | c6 G2 | G4 z4[Q:1/4=84] | z8 | z8 | z8 | z8 | z8 | z8 | %33
 z8 | z8 | z8 | z8 | z8 | z8 | z8 | z8 | z8 | z8 | z8 | z8 | z8 | z2 c2 z2 FF | B2 z F F3 B | %48
 B2 G z z4 | z2 B2 B3 B | _c2 _G2 G2 z _F | _F E z2 z4 | z8 | %53
[Q:1/4=90]"^Etwas lebhafter" z4 z2 z B | _d _c E z/ B/ A3 =G | A/ z/ A B =c =d3 ^F | A G z2 z4 | %57
 z8 | z8 | z8 | z8 | z8 | z8 | z8 | z8 | z8 | z8 | z8 | z8 | z8 | z8 | z8 | z8 | z8 | z8 | z8 | %76
 z8 | z8 | z8 | z8 | z8[Q:1/4=80] |[Q:1/4=66] z8 | z8 |[Q:1/4=86] z8 | z8 | z4 z e d d/ =A/ | %86
 c2 z2 z ^c[Q:1/4=114] d3/2 =A/ ||[K:C] B2 z2 z G G G | e2 B B d2 c B | A z z2 z4 | z8 | %91
 z8[Q:1/4=36][Q:1/4=72] | z8 ||[K:Bb] z8 | z8 | z8 | z8 |[Q:1/4=72]"^poco rall." z8 | z2 c2 f3 A | %99
 B4 z2 A2 | A3/2 d/ d2 z4 |[Q:1/4=66] z2 F2 F G A B | c3 d G2- G z[Q:1/4=60] | z8 | z8[Q:1/4=40] | %105
[Q:1/4=54] z8 | z8[Q:1/4=80] ||[Q:1/4=80]"^Mässig""^\"Mein freund, in Holdem Jugendzeit\"" z8 | %108
 z8 | z8 | z8 | z8 | z8 | z8 | z8 | z8 | z8 | z8 | z8[Q:1/4=98][Q:1/4=80] | z8 | z8 | z8 | z8 | %123
 z8 | z8 | z8 | z8 | z8 | z8 | z8 | z8 | z4 z2 c2 | e8- | e6 A2 | d2 z d =e3 =B | d4 z2 A2 | %136
 =B c d3/2 =e/ g2 ^f e | d3 A =B2- B z | z8 | z8 | z8 | z8 | z8 | z8 | z8 | z8 | z8 | z8 | z8 | %149
 z8 | z8 | z8 | z8 |!p! B2 B B G G c3/2 G/ | (B2 _A) z z2 A2 | _d B B B e3 B ||[K:Eb] c2 z2 z4 | %157
 z8 | z8 | z8 | z8 | z8 | z8 | z8 | z8 | z8 | z8 | z8 | z8 | z4 z2 F2 | z2 _A A G3 =B | %171
 c3 c _d2 =E z | z F F F =E G c3/2 G/ |[Q:1/4=50]"^molto rit." B2 =A z z4 || %174
[Q:1/4=84]"^a Tempo\n" z8 | z8 | z8 | z8 | z8 | z8 | z8 | z8 | z8 | z8 | z8 ||[K:C] z4 z B B B | %186
 d A A3/2 A/ c2 z2 | z8 | z4 z c c G | B ^F F3/2 G/ A4 | z G G2 z A A E | G3 D F2 z2 | z8 | z8 | %194
 z8 ||[K:Eb] z8 | z8 | z!p! F F F B4 | z2 G2 z F2 F | d2 z2 z4 | z8 | z8 | z4 z2 z =A | %203
 =A A A A =B3 A | ^d z z2 z4 | z8 | z8 | z8 | z8 | z8 | z8 | z8 |[Q:1/4=18] !fermata!z8 |] %213
V:2
 z8 | z8 | z8 | z8 || !fermata!z4 z4 | z2 z"^\"Gruß gott, mein Junker\""!mp! C B,2 z D, | %6
 F, E, z2 z4 | C2- C/ F,/ F, F, z z A, | G,3 D F, z E,2 | D,3 C B, z z2 | z8 | z8 | z8 | %13
 z A, C, F, E, =E, (3F,G, A, | (=A,2 B,2) z4 | z8 | z8 | z8 | z2 _A,2 A,3 A, | E,4 z2 B,2 | %20
 B,3 F, F,2 z2 | z8 | z8 | z8 | z8 | z8 | z8 | z2 z C B,2- B, z | B, z G,3/2 C/ B,3 F, | %29
 G,2- G, z z B, B, A, | G,3 C G,3 =A, | (CB,) z G, F,2 z F, | G, F,2 D, E,3 C, | F,3 G, F,2 F,2 | %34
 B,3 D, F,3 G, | _A,4 z2 B,2 | B,2 D,2 (3z E, G, C3/2 G,/ | B,6- B, z | z2 z C B,4 | z2 G,2 C4- | %40
 C2 ^F,2 F,3 C | =B,2- B, z z4 | z E G,3/2 C/ B,3/2 G,/ A,3/2 D,/ | E,2 z E, =E, F, (3G,A, C | %44
 B,6 D,2 | E,2 z2 z4 | z8 | z8 | z8 | z8 | z8 | z2 z _G, G, G, G,3/2 G,/ | %52
 A,3/2 _D/ D _F, F, _G, A,3/2 B,/ | _D _C z2 z4 | z8 | z8 | z2 z G, _B, =D, =E,/ G,/ B,/ C/ | %57
 C _E, z C F, G, (3=A, C B, | B, C, z B, C z F, z | (3F, F, F, B,3/2 D,/ F, E, z F,/ F,/ | %60
 D2- D z z C/ C/ E3/2 =A,/ | C B, z3/2 G,/ F, F, z2 | G, F, B,3/2 D,/ C,4 | z2 z G, F,3 _A, | %64
 =B,,3 A, G,2 D, z/ F,/ | E,2 z A, G,2- G,/ D,/ D, | z C E,3/2 A,/ G,4 | z C E,3/2 A,/ G,3 G, | %68
 G,2 E,3/2 A,/ (G,3 ^F,) | z2 =F,2 C B, D,3/2 G,/ | F,2 z F, B,3 F, | C2 z _A, A,2 A,2 | %72
 G,2 C z G,3/2 G,/ C G, | =A,2 z2 z2 z B, | C4 z2 z F, | F,2 F, F, C3 E, | D,2 z2 z =A, C G, | %77
 =A,2 z2 z A, C G, | =A, B, C D E G, C3/2 G,/ | B, =A,/ A,/ G, F,/ F,/ =E, _D/ D/ C3/2 G,/ | %80
 B, =A, z2 z2 A, A, | B,4 B,2 _A,3/2 G,/ | F,3 C C4 | z4 z E, G,3/2 C/ | B,3 G, A,3 D, | %85
 E,2 z2 z4 | z8 ||[K:C] z8 | z8 | z B, C D G,2 z G, | D3/2 ^F,/ F, z G,A, B, C | A,2 z2 z4 | %92
 z2 (B,2 _B,2 B,2 ||[K:Bb] A,2) z A, B,2 (3z A, G, | C2 F, z D2 z B, | E3 z B, C D E | F3 B, C3 D | %97
 B,4 z4 | z8 | z8 | z8 | z8 | z8 | z8 | z8 | z8 | z4 z2 F,2 || F,2 z F, G,3 D, | F,3 C, E,2 z C, | %109
 D, E, F,3/2 G,/ B,2 A, G, | F, G, (3A,B, C C2 ^F, D, | D,2 z D, =F, E, z2 | F,2 z D, G,2 z G, | %113
 A,3/2 C/ C4- (3C D A, | C2 B, A, G, A, B,3/2 D,/ | F,2 =E, z z G, D2- | D8- | %117
 D z z2 z B, C3/2 D/ | B,2 z2 z2 z _A, | G, D, z2 F,2 z G, | G,3/2 E,/ C,2 z2 z C, | %121
 D, E, F,3/2 G,/ B, A, z G, | F, G, A,/B,/ z/ C/ C ^F, z2 | E, D, z3/2 D,/ F, E, z2 | %124
 F,2 z3/2 D,/ G,2 z G,/ G,/ | A, z C2- C z (3z D A, | C2 B, A, G, A, B,3/2 D,/ | %127
 F,2 =E, z z2 B,2- | B,2- B, z z2 F2- | F2 B, z z2 C3/2 D/ | B,2 z2 z4 | z8 | z8 | z8 | z8 | z8 | %136
 z8 | z8 | z2 z G, A,3/2 A,/ A, =E, | A,3 A, B, F, z2 | z B, B, B, C4- | C3 C D3 A, | C4 B,2 z G, | %143
 A, B, C3/2 D/ G,2 B, G, | A, B, C3/2 D/ G,2 B, G, | C3 C ^C3 A, | D6 =CB, | %147
 A,2 (3A,B, F,!mp! G,2 (3:2:2A,2 =E, | %148
!p! (3:2:2((G,2 F,-) (3F,) (=E,F,) (3:2:2(G,2 F,- (3F,G,) D, | _E,4 z D, E, E, | %150
 E,4- (3:2:2E,2 F,!mf! (3:2:2G,2 A, | B,8- | B,4 z4 | z8 | z8 | z8 ||[K:Eb] z4 z!mf! _E, E, E, | %157
 C3 C C3 B, | B,2 =A, F, _A, _G, F,3/2!mp! E,/ | _D,4- D,3 C, |!p! C,2 B,, z z B, B, B, | _C7 B, | %162
!mp! =A,B, =C z z E, _G,2- | G, _G, F, E, B,2 E,2 | z A, A, A, B,2 F, F, | B,3 B, C2 G, C, | %166
 C3 C D3 =A, | C3 G, B,3 =A, | G, =A, B,3 C D3/2 C/ | F,2 z2 z4 | z8 | z8 | z8 | z8 || z8 | %175
 z E G,3/2 C/ B, z/ G,/ A,3/2 D,/ | E,2 z2 z2 G,2 | =E, F, z A,/ =A,/ (C2 B,) _A, | %178
 G, z (3G, G, G, F,2 A, C | D,4 B, z G,2 | =E, G, C2 F,3 _D | _D4 _E,2 z2 | %182
 z2 A, A,/ A,/ B, F, z2 | z2 B,/ G,/ z/ G,/ C z z2 | z =A, A, A, D z z A, ||[K:C] D3/2 G,/ G,2 z4 | %186
 z4 z2 z D | D G, A, B, C3 ^F, | G,2 z2 z4 | z8 | z8 | z4 z D A,3/2 B,/ | D C E,3/2 A,/ G,2 z2 | %193
 E,2 E,3/2 E,/ A,4 | A, z F,3/2 _B,/ A,4- ||[K:Eb] A,3 F, B,2 z2 | z8 | z8 | z8 | z2 z!p! B, B,4 | %200
 B,3 F, G,2 z2 | z2!mf! E2 F,3 B, |!mp! E,2 z2 z4 | z8 | z2 z!pp! =B, B,3 B, | ^G,4 z2 =B, z | %206
 =B,3/2 =E,/ E,2 z4 | z2 z _A, A, A, G,3/2 A,/ | C6 A,2 | (E,3 G,/F,/) E, z z2 | %210
 z2 z!p! C A, G, F, C | D, G, G, C, z4 | !fermata!z8 |] %213
V:3
!p! [fad'f']2 (6:4:6F/A/d/f/a/"_cresc."d'/ (6:4:6f'/d'/a/f/d/A/ (6:4:6F/[I:staff +1]D/B,/F,/D,/B,,/ | %1
[I:staff -1] x2 (6:4:6F/A/d/f/a/d'/ (6:4:6f'/d'/a/f/d/A/ (6:4:6F/[I:staff +1]D/B,/F,/D,/B,,/ | %2
!mf![I:staff -1] x2 (6:4:6F/"_dim."A/d/f/a/d'/ f' z z2 |!p! x2 (6:4:6F/A/d/f/a/d'/ [fad'f']4- || %4
 [fad'f'] z !fermata!z2 z!f! (AG>D) | (FE[K:bass]G,>C B,>).G,!p!A,>.D, | (F,E,D,E,!<(! =E,F,G,A,) | %7
 (=E,F, (3G,A,=A,!<)!!mp!!>(! C2 B,_A,) | (G,EDG, F,DCE,)!>)! | %9
!p! (D,F,A,C B, C/4B,/4=A,/4B,/4 CD |!p! [G,E]8) |[K:treble]!p! ([Ec]2- [Ec] z [_DB]2- [DB]) z | %12
 [CA]4 z (_dc>.G) |!p! (BACF) (E!<(!=E (3FGA) | (=A2 B3 ce_d)!<)! |!p! ([Gc-]8 |!p! c4 =B4 | %17
!pp! [^G=B=e^g]8) |!pp! [c_e_ac']2 E/A/c/e/ z2 e/a/c'/e'/ |!pp! b4- (bc'gb- | bf a4 gf) | %21
!p! (b4- b=aeg- | gd f2- fgdf- |!p! fc e4 dc) | [C^Fd]4 [_D=F_d]4 | F4!pp! =E4- | %26
 [CEc]4!mf! z!>(! (AG>D)!>)! |[K:bass]!p! (FEG,>C B,4) | (FEG,>C B,4) | (FEG,>!<(!A, =A,B,CD)!<)! | %30
[K:treble] E!<(!DEF!<)! z!>(! (ed>=A!>)! |!p! cBD>G F4) | GFB,D z!>(! (ed>=A!>)! | cBD>G F4) | %34
 GFB,>D z!>(! (ed>=A!>)! |!p! B4) B z (3A=Ac |"_cresc." (=efg_a ^fg (3a=ac') | b2- b z =AB (3=Bcd | %38
 (feG>c!<(! B4)!<)! | _d!>(!cG>B A3 G!>)! |!p! [C^F]8 |!<(! [=B,G]4!<)!!f!!>(! z (ag>d | %42
 fe!>)!!p!G>.c)"_cresc." B>.GA>.D | (FEDE) (=EF (3GAc) | (Bc (3dfe) (=ef (3gad) | %45
!f! (_e=e (3f^fg) (=ab (3=bd'c') |!pp! (b4 b)=aeg | [Bg]d [Ff]2- fgdf- | (fc e4 dc) |!pp! ([DBd]8 | %50
 e6 _d2) | _c4- c z z2 |!<(! _A4 _d3 =d!<)! | z4!mf! z!<(! (_fe>B)!<)! | %54
!>(! (!>!_d_cE>B!>)!!p! A3 G |!<(! z (AB!<)!=c [^F=d]2)) z2 |!p!"_cresc." z (_ag>d) z (d'c'>g) | %57
 (b=ae>g)"_dim." (gd f2- | fced z (ed>=A) |!p! cBD>G z"_cresc." ed>=A) | %60
!<(! cBD>G z!<)!!f! (ed>=A |!p! [=Fc]BD>G) F4 | GFB,>D z (e!p!d>=A | cBD>G)!p!!<(! (F3 _A-!<)! | %64
!>(! AGD>E)!>)! z!<(! (ed>=B!<)! |!>(! dcE>A!>)! G4) | z4"_cresc." z (ed>=B | dcE>A G4-) | %68
 G7- G/ ^F/ |!p! =F6 D2 | z!p! (ed>=A cBD>G) | F4"_cresc." z (_AG>D) | z ed>G z (gf>c) | %73
!p! (db=a^c =cagB) |!<(! (=Ace!<)!g-!>(! g2 =f2)!>)! | z8 |!p! (DB=A^C) (=CG^FE) | %77
 (DB=A^C) (=CG^FE) |"_cresc." (DB=AD) (EdcG) | z (gfe d_dc>G) |!f! (^A=A- A/B/=B/c/) (cE) z2 | %81
!p! B6 _A>G | (F3 c) c4- |!>(! z (ag>d f!>)!eG>c) |!p! (B6 B) z | z4 z .e.d>.=A | %86
!p! (c4- c^cd>=A) ||[K:C]!p! [Bg]/G/[Bg]/G/[Bg]/G/[Bg]/G/ [Bg]/G/[Bg]/G/[Bg]/G/[Bg]/G/ | %88
 [dg]/G/[dg]/G/[dg]/G/[^cg]/G/ [=cg]/G/[c^f]/G/[Ae]/^F/[Bd]/G/ |"_cresc." .c.d.e.^f .B.c.d.e | %90
 A/G/B/A/c/G/d/^F/ G/F/A/G/B/F/c/E/ |!f! [C^FA] (3(a/b/c'/ [dd']) z"_dim." z4 | z8 ||[K:Bb] z8 | %94
 z8 | E6 z2 | z2!f! [DF]2 z2!p! C2 |!f! ([df-]4 [Ff]=eB(=d-) |"_dim." dA c2- cdAc-) | %99
 (cG B2- BA=EG-) | (GD F2- FGDF-) | (FGDF EDCB, |!p! A,B,CD G,A,B,C) |!pp! (^F,A,D^F- F A2 d- | %104
 d2 ^f4) z2 |[I:staff +1] (E,A,[I:staff -1]CE- E A2 c- | c e2- e) z4 || %107
!p! (F2- (3:2:4F-F/ z/ .F) (G2- (3:2:4G-G/z/.D) | (F2- (3:2:4F-F/z/.C) (E2- (3:2:4E-E/z/.C) | %109
 .D.E(F>G"_cresc." B2 A).G | .F.G (3AB.c!f!!>(! (c2!>)! ^F) z | %111
!p! (D2- (3:2:4D-D/z/.D) (3:2:2(=F E2- (3:2:4E-E/z/.E) | %112
 (F2- (3:2:4F-F/z/.D)"_cresc." G2- (3:2:2G2 G | (A>c c4- (3cd.A) |!f! (c2 B).A"_dim." .=G.A(B>D) | %115
!p! (B3 ^F =G2- (3GAB) |"_cresc." (d3 A B2- (3B^cd) | %117
!<(! ([B=f]2 (3x x d!<)!!f! .b) z!p! [FAef] z | (3z!>(! (gd (3fce (3BdA (3cB_A)!>)! | %119
!p! (G4 F3 G) | (G4 E2 C2) |!<(! .D.E(F>G!<)!!>(! B =A2!>)! G) | .F.G(A/B/) z/ c/!p! z2 (c>D) | %123
!p! D z/ (3(^C/4D/4E/4) .[G,D].B,"_cresc." z3/2 (3(D/4E/4F/4) .[B,E].G, | %124
 z3/2 (3(=E/4F/4G/4) .[DF].A, z3/2 (3(^F/4G/4A/4) (3.G._E.B, | A>c (c4 d>.A) | (c2 BA GAB>!p!.D) | %127
 (B^F (3G).A.B"_cresc." (dA (3B).^c.d | (3(f^c).d (3(=efb-) (3(be).f (a/b/^c'/d'/) | %129
!f! (3([ff']/_e'/d'/c'/4b/4a/4g/4 (3f/e/d/c/4B/4A/4G/4) .[FAef] z z2 | %130
!f! (3z .B.c (3.d.e.F !^!f3 .f | !^!g3 .d"_dim." (f3 c |!p! [ef]3) c"_cresc." de[Ff]>[Gg] | %133
 ([Bb]2 [Aa]).[Gg] .[Ff].[Gg] (3.[Aa].[Bb].[cc'] |!>(! d'3 d'!>)!!p! =e'3 =b | d'3 a c'3 a | %136
"_cresc." .[=B=b].[cc'][dd']>.[=e=e'] ([gg']2 [^f^f']).[ee'] | %137
 .[dd'].[=e=e'] (3.[^f^f'].[gg'].[aa']!f!!>(! ([aa']/f'/=b/)(a/ =B/f/A/d/)!>)! | %138
!p! G3 (.G .A3) =E | A3 (.A ._B3) F |"_cresc." B3 (.B .c3) (.G | .c3) (.c .d3) (.A | %142
 .c3) (.G- .B3) !wedge!G |!p!!<(! !wedge!A!wedge!Bc>(d!<)!!mp!!>(! !>!f2 =e)!wedge!G!>)! | %144
!p!!<(! .A.Bc>(d!<)!!mp!!>(! f2 =e).d!>)! |!p! .c"_cresc.".d (3.=e.f.g (g2 ^c)!>!d | %146
 !>!=e!>!f (3!>!g!>!a!>!b!f! (b2-"_dim." (3bc'g) | (a2- (3abf) (g2- (3ga=e) | %148
!p! (3:2:2(g2 f- (3f)(=ef (3:2:2g2 f- (3fg)d | (_e2 (3:2:2f2 c d2!p! (3:2:2e2 =B | %150
{/d} (3:2:2c2 =B (3:2:2c2 d (3:2:2e2 f (3:2:2g2 a) | %151
!p! ([Bfb]2-!<(! (3:2:4[Bfb]-[Bfb])z/[Bb]/ ([cgc']2- (3:2:4[cgc']-[cgc'])z/g/!<)! | %152
"_cresc." ([_Adb]2- (3:2:4[Adb]-[Adb])z/f/!f!!>(! (3(._a.g.f (3.e.d!>)!.c) |!p! B3 (.B .c3) G | %154
!p! c3 (.c ._d3) A |!p! _d3 !wedge!d!<(! e4!<)! ||[K:Eb]!<(! (=e4-!<)!!f!!>(! ef_e>!p!_d!>)! | %157
!p!!<(! c4 c3 B)!<)! |!f! (B2!>(! =AF _A_GF>E)!>)! | %159
!<(! !///-!B,2 _D2!<)!!>(! !///-!=A, D A,/4D/4A,/4D/4A,/4!>)!D/4A,/4D/4 | %160
!p!"^Zart ausdrucksvoll" (_d3 d [Be]3 B | _d3 A"_cresc." _c3 B | =A)(.B (3.=c._d.e) (e2 A).B | %163
 (.c._d!mf! (3.e.f._g-)"_dim." (3(.g.f.e (3.d.c.B) |!p! a3 (.a b3 .f) |"_cresc." b3 (b c'3 .=g) | %166
!p! c'3 (c' d'3) (=a | c'3) (g"_cresc." b3) (=a | %168
 g)!wedge!=a!wedge!b!wedge!c'!f! (d'>=e') (5:4:5(e'/f'/e'/d'/e'/) | %169
!p! [=f=af']2- [faf'] =B,!<(! C2 (3CDE!<)! | G3 D!p! F (E2 =B, | C2- (3CDE)"_cresc." (=A3 G- | %172
!mf! G)(F- (3:2:6F/F/=E/F/G/F/) (c3 B) |!>(! (B2 =A6)!>)! ||!f!!<(! _a4- a!<)!!f! (ag>.d) | %175
 (fe!p!G>)!wedge!c"_cresc." B>!wedge!GA>!wedge!D | (FEDE) (=EF!p!GA) | %177
!<(! (=EF (3GA).=A (c2 B!<)!_A) |!p! (G_edG FdcE) |!<(! (DFAc B (c/4B/4=A/4B/4) c_d)!<)! | %180
!p! (cagc BgfA) |!<(! (GB_df e (f/4e/4=d/4e/4) f^f)!<)! |!p! [Aa]3 (.[Aa] [Bb]3 .f) | %183
 [Bb]3 (!wedge![Bb] !wedge![cc']3) g |"_cresc." [cc']3 [cc'] [dd']3 =a || %185
[K:C]!p!!>(! [dd']3!>)! [dd'] [ee']3 b |!<(! d'3 a [c^fc']!<)!!>(! cB>^F | AGB,>!>)!E D^C z2 | %188
!p! [Bb]3 [Bb] [cgc']3 g | [B^fb]3 [Af]!<(! (a2- (3ag!<)!f |!p! g3) g =a3 e | %191
!>(! g3 d!>)!!p! f2!<(! z2 | G3 ^F!<)! =F!p! z!<(! z2 | z2 E2!<)!!mf! A2 z2 | z2 F2 G2 ^C2 || %195
[K:Eb]!mf! z4!mp! z!<(! (dc>G)!<)! |!f! (B4-"_dim." B=A_EG |!p! GD F2- FGDF- |!p! FGDF E2- (3EDC) | %199
 D8- |!p!"_cresc." z (A=G>D FEG,>)!wedge!C | ([EGB]2 [Ge][=Ag]!f!!>(! [D_AB]2- [DAB])!>)! z | %202
!p! E8- | E8- | E4- E z z2 |!pp! [^G=B=e^g]8- | [GBeg]8 |!pp! [ceac']6 c/e/a/c'/ | e' z z2 z4 | %209
 [Begb]4 (3z z B (3egb |!p! [=Ec]2 z2 [CA]2 z2 | z4 [=B,G]2 z2 | !fermata!z8 |] %213
V:4
!ped! (6:4:6F,,/B,,/D,/F,/B,/D/ x2 x4 | (6:4:6F,,/B,,/D,/F,/B,/D/ x2 x2 x x!ped-up! | %2
!ped! (6:4:6F,,/B,,/D,/F,/B,/D/ z2!ped-up! z4 |!ped! (6:4:6F,,/B,,/D,/F,/-B,/-D/- A6- || %4
 A2-!ped-up! A !fermata!z z4 | z4 z2 B,, z | C,6 .B,,2 | .A,,2 .F,,2 .D,,2 z2 | %8
 [G,,=B,,]4 [A,,C,]4 | B,,8 | [C,E,]8 |{/E,,} ([E,A,]2- [E,A,] z [E,G,]2- [E,G,]) z | %12
 [A,,E,A,]4 [B,,E,G,]4 | E,2 A,4 _D,2 | _D,6 B,,2 | ([=E,,C,]8 | [D,,D,]8 | [=E,,=B,,=E,]8) | %18
!ped! [C,,C,]/_E,/_A,/C/ z2[K:treble] C/E/A/c/ z2!ped-up! |[K:bass] [E,,B,,G,]4 [G,,E,]4 | %20
 [F,,B,,A,]4 [A,,B,,F,]4 | [G,,E,-]4 G,2 C2 | [D,B,]4 [F,B,D]2 z2 | F,4 =A,4 | %24
 [=A,,^F,]4 [B,,G,]4 | _A,4 G,4- | G,4 [F,,=D,A,]4 | G,2 z2 z2 (.[F,,D,]2 | %28
 .[G,,E,]4) z2 .[A,,F,]2 | x2 E,2 [F,,D,]2 [B,,,B,,]2 | [C,,C,]4 [E,=A,]2 F,2 | %31
 [D,B,]4 z2 (.[C,,C,]2 | .[B,,,B,,]4) z2 (.[F,,E,=A,]2 | .[D,,B,,]4) z2 (.[C,,C,]2 | %34
 .[B,,,B,,]4) z2 (3(E,F,G,) | (D,,2 [F,,D,]2 [E,,B,,]2 [G,,E,]2) | %36
 ([D,_A,B,]2 [F,D]2 [E,B,]2 [G,E]2) | [D,A,]2 [F,D]2 D,2 F,D, | [G,,E,B,]6 .[F,,F,]2 | %39
 [=E,,G,]4 [F,,F,]2 ([G,,_E,]2 | ([A,,D,]8) | [G,,D,]4) [F,,D,]4 | [G,,E,]4- [G,,E,B,] z [B,,F,]2 | %43
 G,6 F,2 | G,>[G,E][B,G]>G, A,>[CA] [F,D] z | [=A,,F,]4 [G,,_E,B,]4 | %46
 z (E, (3G,C(E [=A,EG]2) [CE]2 | [B,D]4 D2 B,2) | [CE]4 T=A,3- A,/ (G,/4A,/4) | ^F,,8- | _G,,8 | %51
 [_G,,-E,]8 | _F,4 B,4 |!<(! (_C,E,_G,A,!<)! B,2) x2 | _C2 E,4 =E,2 | (F,3 _E, =D,2) z2 | %56
 G,,2 [D,=F,=B,]2 G,,2 [G,_B,=E]2 | [F,,,F,,]2 [F,CE]2 [F,-B,D]4 | (C3 D E2 C=A,) | F,4 =A,4 | %60
 [D,B,]2 F,2 [E,=A,]2 [E,,E,]2 | [D,,B,,]4 z2 (.[C,,F,,C,]2 | .[B,,,F,,B,,]4) z2 (.[F,,E,=A,]2 | %63
 .[D,,B,,]4) z2 .[F,,D,]2 | [D,,F,]4 D,G,=B,[I:staff -1]D |[I:staff +1] [C,G,]4 z2 =B,,D, | %66
 C,2 z2 G,2 (.=B,[I:staff -1].D) |[I:staff +1] (E,4 C,2) D,2 | E,2 x2 (C,>E,D,>C,) | %69
 E,4 (D,2 B,,2) | F,8 | E,4 ([D,F,]2 B,,2 | [C,G,]2) (E,2 [C,E,]2 [E,=A,C]2) | =A,4 B,3 _D | %74
 C3 E E4 | z8 | (^F,3 G,) (=A,3 [G,B,]) | ([^F,=A,]3 G,) (A,3 [G,B,]) | [^F,=A,]4 ([G,B,]2 A,).B, | %79
 [CE]3 =A, (=E3 G,) | (C3 _B, =A,) z z2 |[I:staff -1] (B,4[I:staff +1] G,2 _A,>B,) | [A,,E,]8 | %83
 [F,,B,,A,]4 [G,,E,G,]7/2 [A,,F,]/ | [B,,G,]2 [G,B,E]2 [B,,,B,,]2 [F,A,B,]2 | [C,F,=A,]8 | %86
 z2 !trill(!TD,4 (5:4:5(D,/=E,/D,/^C,/D,/) ||[K:C] .G,.A, .G,2 .G,.A, .B,2 | .E2 .B,2 x .A,.C.B, | %89
 E x x2 D x x2 | C x x2 B, x x2 | D, (3(A,/B,/C/ [D,D]) z ([C,C]4 | [B,,B,]4 [_B,,_B,]4 || %93
[K:Bb]!p! [A,,A,]4)"^cresc." [G,B,]4 | [A,C]4 [F,B,D]4 | [G,B,]6 z2 | z2 [F,B,]2 z2 A,2 | %97
 (G,,B,, D,/G,/B,/D/) (_D2 CB,) | ([CG]4 F2 C2) | (D3 B, G,3 A, | =C3 =B, _B,7/2 C/ | B,4 A,3 G, | %102
 [E,F,]3 =E, _E,4) |!ped! [D,,D,]8- | [D,,D,]2!ped-up! z2 z4 | =F,,2 z2 z4 | z8 || %107
 z (F, (3B,D) z z (D, (3F,B,) z | z (E, (3G,B,) z z (C, (3E,G,) z | F,E,D,_D, (3z (C,_E, A,) z | %110
 C,2 E,2 (3z D,^F, z2 | (3z (^C,D, (3G,B,) z (3z (D,E, (3G,B,) z | %112
 (3z (D,E,) (3z (=E,F,) (3z (D,_E,) (3z (^F,G,) | (3z (=F,A, (3:2:2z2 E,) (3D,^C,D, ^F,2 | %114
 (3z (^C,D, (3=G,B,) z (3z (C,D, (3G,B,) z | %115
 (3z ^F,G,- (3G,^G,A,-!<(! (3A,[I:staff -1]B,C[I:staff +1] x2!<)! | %116
 (3z =E,G, (3B,G,E,- (3E,F,^F, [B,,G,]2 | [=F,,B,,D,=F,]3 [F,B,D] [B,DF] z [F,CE] z | x8 | %119
 (3.G,.F,.D, .=B,, z (3z .D,._A,, G,, z | (C,,2- (3C,,D,,E,,- (3E,,G,,C, (3E,G,) z | %121
 TD,7/2 C,/4D,/4 E,4 | E,2- E,/ z/ z[I:staff -1] (3(C[I:staff +1]B,A, (3_A,G,^F,) | %123
 (3.B,,.D,.G, .B, z (3.G,,.B,,.E, .G, z | (3.D,,.D,.F, .A, z (3.B,,._E,.G, .B, z | %125
 (3z E,G, A, z (7:4:7D,,/D,/^F,/A,/[K:treble]C/^F/-A/- [FAc] z | %126
[K:bass] (3z (^C,D, (3G,B,) z (3z (C,D, (3G,B,) z | (3z (G,A, B,).G, (3(A,B,C (3D).B,.[=E,G,] | %128
 (3(D,G,).B, (3(B,,D,).G, (3(B,,G,).F, .D,.B,, | !^!B,2 !^!F,>F, F,2- F,/.D,/.E,/.F,/ | %130
 .G,.A,.B,.C (3[D,B,D][K:treble] .D.E (3(=EF).B, | %131
[K:bass] (3[B,,D,B,][K:treble] .D.E (3(FG).D[K:bass] (3[C,E,B,][K:treble] .C.D (3(EF).C | %132
[K:bass] (3z .=B,.C (3(DE).C .F.E.D.[CE] | (3(ECD CB,) (A,B, (3CG,E,) | %134
 ([D,,A,,]/D,/^F,/A,/[K:treble] D/^F/A/) z/[K:bass] (3z .=B,.C (3(D=E).D | %135
 (3z .A,.=B, (3(CD).=E, (3z .^G,.A, (3(B,C).D | (DC=B,[_B,^C] (3[A,=C])(A,=B, (3CA,G,) | %137
 D4!ped! (G,,/D,/=F,/=B,/ D) z!ped-up! | %138
 (5:4:5(=E,/G,/=B,/C/D/ C) z (6:4:6(C,/=E,/A,/^D/=E/F/ E) z | %139
 (6:4:6(D,/F,/A,/^G,/A,/_B,/ A,) z (5:4:5(D,/F,/A,/B,/=C/ B,) z | %140
 (5:4:5(=E,/G,/B,/C/D/ (C2) B,A, (3G,).F,.E, | %141
 (6:4:6(A,,/F,/A,/=B,/C/D/ C) z (6:4:6(F,,/C,/F,/G,/^G,/_B,/ A,) z | %142
 (6:4:6(G,,/D,/F,/A,/B,/C/ B,) z (6:4:6(=E,,/C,/=E,/^F,/G,/A,/ G,) z | %143
 !wedge!F,!wedge!G,A,>(B,- B,C (3^CD)!wedge!B, | .F,.G,.A,>(.B,- B,C (3^CD).B, | %145
 G,!wedge!F,=E,>!wedge!D, (^C,E, (3F,).G,.A, | B,2- (3B,!>!=C!>!D (3(D^CD =CB,) | %147
 [F,A,=E]2 [D,F,D]2 [=E,G,D]2 [C,E,C]2 | ([A,C]2 [B,D]2) ([B,,D,]2 [F,D]2) | [G,B,]2 F,4 E,2 | %150
 F,4 G,2 (3A,G,F, | (3([D,,D,]F,B, (3.D.F) z (3[E,,E,]G,B,[K:treble] (3EG z | %152
[K:bass] (3([F,,F,]_A,D[K:treble] (3F_A) z[K:bass] (3([B,,,B,,]F,B,[K:treble] (3DF) z | %153
[K:bass] (5:4:5(G,/B,/D/E/F/ E) z (5:4:5(E,/G,/=B,/C/D/ C) z | %154
 (5:4:5(F,/_A,/=B,/C/_D/ C) z (5:4:5(F,/A,/C/D/_E/ D) z | (5:4:5(G,/_B,/C/_D/E/) D z .D.C B,2 || %156
[K:Eb] [=E,_A,]4 !///-!_E,2 _D2 | (6:4:6z .E,.F,._G,.A,.B, C,4 | C,4 E,2 B,,2 | %159
 (F,2 _G,2- G,F,) E,2 |[I:staff -1] (3B,[I:staff +1] ._D.B, ._G, z (3z (.B,.G, ._D,) z | %161
[I:staff -1] (3_C[I:staff +1] ._C.A, E, z (3z (=D,C G,_G,) | _C(.B,.=A,._A,) .=A,.B, z2 | %163
 G,4 C2 E,2 | (3F, (FC (3E_DA,) (3_D, (FC (3EDA,) | (3z (_GB, (3_DCB,) (3z (B,=G, (3=DCG,) | %166
 (3z (=A,=E, (3G,F,C,) (3z (A,E, (3G,F,E,) | (3z (B,D, (3F,=E,D,) (3z (B,^F, (3=A,G,B,) | %168
 [D,G,B,D]4 (3(G,B,[=A,C] (3[B,D]G[G,B,]) | [F,=A,]4 ([F,,_E,]4 | [F,,D,]4) ([C,,E,]4 | %171
 [C,E,G,]4) ([_B,,=E,]4 | [=A,,_E,]4) [G,,=E,B,]4 | _E,8 || [F,,B,,D,F,]8 | %175
 [G,,E,B,]4- [G,,E,B,] z [B,,F,]2 | z2 E,2 G,2 [=E,G,]2 | [A,,A,]2 A,.F, [D,,B,,]2- [D,,B,,] z | %178
 [G,,=B,]4 A,,4 | [F,A,]7 G, | [B,=E]4 F,2 B,2 | [B,_D]8 | z !wedge![A,C] [CF]2 z (AG>D | %183
 FEG,>C) B,[K:treble] (B=A>=E | GF[K:bass]=A,>D) C[K:treble] (c=B>^F || %185
[K:C] AGB,>E)[K:bass] (DC^^G,>E | CA, (3AG^F E2 D)C | [B,D]2 G,2"_dim." ^F,2 =C>F, | %188
 A,G,^F,>G, [E,,E,] (G,CE) | [^D,,^D,] [^F,B,][A,^F] z [C,,B,,] [A,^D][DF] (B, | %190
 CB,^A,>B,) (C,E, (3=A,CE) |[I:staff -1] (=F[I:staff +1]^C (3DB,A,) G,2 F,2 | %192
 G,2[I:staff -1] C2-[I:staff +1] !>![D,G,]2 ([G,,F,]2 | %193
[I:staff -1] G,2[I:staff +1] C,2) !>![^C,G,]2 E,,2 | %194
[I:staff -1] A,2 D2-[I:staff +1] !>!A,2 [G,A,]2 ||[K:Eb] =A,2 (3A,=ED (3(=C^CD =C2) | %196
 (_E,F, (3^F,G,C E) z [C,E,]2 | [F,,D,]8 | (E,3 D, C,3 F,) | [_G,,D,]8 | [F,,B,,]4 G,2 E,2 | %201
[I:staff -1] B,[I:staff +1] (B,G,[E,C] [B,,F,]2-) [B,,F,] z |!ped! [=B,,E,=A,]8- | [B,,E,A,]8- | %204
 [B,,E,A,]4- [B,,E,A,]!ped-up! z z2 | [=E,,=B,,=E,]8- | [E,,B,,E,]8 | %207
!ped! C,,/_E,,/_A,,/C,/ _E,/_A,/C/_E/ A,/C/[K:treble]E/A/ z2 |[K:bass] z8!ped-up! | %209
!ped! (3E,,G,,B,, (3E,G,B, (3EG z z2!ped-up! | [C,G,B,]2 z2 [F,A,]2 z2 | z4 [G,,D,F,]2 z2 | %212
 !fermata!z8 |] %213
V:5
 x8 | x8 | x8 | x2 [F,B,D]4- x2 || [F,B,D] z z2 z4 | x8 | x8 | x8 | x8 | x8 | x8 | x8 | x8 | %13
 (C,4 B,,3 A,, | G,,6 =F,,2) | x8 | x8 | x8 | x4[K:treble] x4 |[K:bass] x8 | x8 | x4 [C,E,]4 | x8 | %23
 C,8 | x8 | C,8- | C,4 x4 | [G,,E,]4 x4 | x8 | G,,4 x4 | x4 C,4 | x8 | x8 | x8 | x6 [F,,=A,,]2 | %35
 x8 | x8 | x6 A,,2 | x8 | x8 | x8 | x8 | x8 | (C,4 B,,2) A,,2 | B,,2 z2 B,,2 z2 | x8 | %46
 F,,2 x4 F,2- | F,8- | F,8 | x8 | x8 | x8 | G,,8 | _G,,4 [=G,,E,]4 | A,,4 B,,4 | A,,4 A,,2 x2 | %56
 x8 | x8 | F,4 F,4 | F,,8 | F,,6 x2 | x8 | x8 | x8 | z2 z =B,, x2 .G,,2 | x6 (.F,,2 | %66
 .E,,2) x2 z2 (G,,2 | A,,8) | A,,8 | (=A,,2 F,,2) x4 | (=A,,2 F,,2) (D,2 B,,2) | x8 | x8 | %73
 D,3 _E, =E,3 =F, | ^F,2 (3G,=A,B, C4 | x8 | D,8- | D,8 | D,4 (C,2 E,2) | F,8 | ^F,4- F, x3 | %81
 G,,4 C,4 | x8 | x8 | x8 | x8 | [=A,,^F,]8 ||[K:C] x8 | x4 D4 | .A,.B,.C.D .G,.A,.B,.C | %90
 .^F,.G,.A,.B, .E,.F,.G,.A, | x8 | x8 ||[K:Bb] x4 [G,,D,]4 | [F,,E,]4 [D,,D,]4 | [C,,C,]6 x2 | %96
 x2 [F,,,F,,]2 x2 [F,,E,]2 | G,,, x3 G,4 | A,8 | G,4 =E,4 | [D,F,]8 | C,8- | C,4- C,2 E,,2 | x8 | %104
 x8 | x8 | x8 || (.D,4 .B,,4) | (.C,4 .A,,4) | (G,,4 F,,4 | E,,4 D,,2) x2 | B,,4 G,,4 | %112
 (.A,,2 .D,2) (.B,,2 .E,2) | C,2 A,,2 ^F,,2 D,,2 | G,,4 B,,4 | (.=C,4 .B,,4) | G,, x3 F,,2 =E,,2 | %117
 x8 | x8 | x8 | x8 | F,,4 ^F,,2 G,,2 | (A,,2 (3G,,)F,,.E,, D,, z D,2 | x8 | x8 | %125
 C,4 x73/64[K:treble] x183/64 |[K:bass] G,,4 B,,4 | =C,4 B,,2 x2 | G,, z z2 F,, x z2 | %129
 [F,,D,] z z2 [F,,C,] z z2 | x14/3[K:treble] x10/3 | %131
[K:bass] x2/3[K:treble] x10/3[K:bass] x2/3[K:treble] x10/3 |[K:bass] [A,,F,] x3 G,4 | F,4 E,4 | %134
 x2[K:treble] x2[K:bass] [=B,,G,] z z2 | [A,,=E,] z z2 ^F,, z ^F,2 | [=E,G,]4 D,4 | %137
 (^F,G, A,F,) x4 | x8 | x8 | =E,6 B,,2 | x8 | x8 | D,4 [C,G,]2- [C,G,] z | D,4 [C,G,]2- [C,G,] z | %145
 B,,4 A,,4 | G,, z z2 (G,2 =E,2 | x8 | D,4 B,,4) | (C,2 A,,2 B,,2 (3:2:2G,,2 ^G,, | %150
 A,,2 =G,,2 F,,2 E,2) | x6[K:treble] x2 |[K:bass] x2[K:treble] x2[K:bass] x2[K:treble] x2 | %153
[K:bass] x8 | x8 | x4 (E,3 _D, ||[K:Eb] C,3 _C, B,,2) z2 | A,,4 _G,,4 | F,,4 E,,4 | x8 | %160
 B,, x3 _G,, x3 | A,, x3 _G,, x3 | (F,2 E,2 _D,2 =C,2 | B,,2 =A,,2 _A,,4) | x8 | %165
 E, z z _D, C,2 B,,2 | =A,,2 z2 F,,2 z2 | G,,2 z2 =E,,2 z2 | x4 C,2 z2 | x8 | x8 | x8 | x8 | %173
 _G,,4!mp! F,,4 || x8 | x8 | C,6 B,,2 | x2 F,,2 x4 | x8 | _B,,8 | C,4 _D,4 | E,7 =E, | %182
 F,2 z2 B,, x B,2 | z2 E,2 C,[K:treble] z z2 | z2[K:bass] E,2 D,[K:treble] z z2 || %185
[K:C] x2 G,2[K:bass] x2 A,,2 | ^F,2 z2 A,4 | x2 B,,2 A,,4 | [B,,D,]2 z2 x4 | x8 | E,2 z2 C,2 z2 | %191
 [D,B,]2 z2 (B,,2 G,,2 | E,2 C,2) z2 x2 | A,,2 x2 z2 x2 | F,,2 A,,2 (E,2 A,,2) || %195
[K:Eb] (D,2 F,2) ([=E,G,]2 [G,B,]2) | F,,2 x4 =F,,2- | x8 | F,,8 | x8 | x4 =G,,7/2 A,,/ | B,,4 x4 | %202
 =B,,,8- | B,,,4- B,,, z z2 | x8 | x8 | x8 | x5[K:treble] x3 |[K:bass] x4 x4 | x8 | x8 | x8 | x8 |] %213
V:6
 x8 | x8 | x8 | x8 || x8 | x8 | x8 | x8 | x8 |[I:staff -1] (D,3[I:staff +1] E, F,4) | x8 | x8 | %12
 x8 | x8 | x8 | x8 | x8 | x8 | x4[K:treble] x4 |[K:bass] x8 | x8 | x8 | x8 | x8 | x8 | x8 | x8 | %27
 x8 | x8 | x8 | x8 | x8 | x8 | x8 | x8 |[I:staff -1] A,2 x6 | x8 | x8 | x8 | x8 | x8 | x8 | %42
 x2[I:staff +1] B,2- x4 | x8 | x8 | x8 | x8 | x8 | x8 | x8 | x8 | x8 | x4 _D,2 _G,2 | x8 | x8 | %55
 x8 | x8 | x8 | x8 | x4 E,2 C,2 | x8 | x8 | x8 | x8 | x8 | x8 | x8 | x8 | x4 G,3 x/ ^F,/ | x8 | %70
 C,4 B,4 | x8 | x8 | x8 | x8 | x8 | x8 | x8 | x8 | x8 | x8 | x8 | x8 | x8 | x8 | x8 | x8 || %87
[K:C] x8 | x8 | x8 | x8 | x8 | x8 ||[K:Bb] x8 | x8 | x8 | x8 | x8 | x8 | x8 | x8 | x8 | x8 | x8 | %104
 x8 | x8 | x8 || x8 | x8 | x8 | x8 | x8 | x8 | x8 | x8 | x8 | x8 | x8 | x8 | x8 | x8 | x8 | x8 | %123
 x8 | x8 | x103/20[K:treble] x183/64 |[K:bass] x8 | x8 | x8 | x8 | x14/3[K:treble] x10/3 | %131
[K:bass] x2/3[K:treble] x10/3[K:bass] x2/3[K:treble] x10/3 |[K:bass] x8 | x2 E2 x4 | %134
 x2[K:treble] x2[K:bass] x4 | x8 | x8 | x8 | x8 | x8 | x8 | x8 | x8 | x8 | x8 | x8 | x8 | x8 | x8 | %149
 x8 | x8 | x6[K:treble] x2 |[K:bass] x2[K:treble] x2[K:bass] x2[K:treble] x2 |[K:bass] x8 | x8 | %155
 x8 ||[K:Eb] x8 | x8 | x8 | x8 | x8 | x8 | x8 | x8 | x8 | x8 | x8 | x8 | x8 | x8 | x8 | x8 | x8 | %173
 x8 || x8 | x8 | x8 | x8 | x8 | x8 | x8 | x8 | x8 | x5[K:treble] x3 | x2[K:bass] x3[K:treble] x3 || %185
[K:C] x4[K:bass] x4 | x8 | x2 D,4 x2 | x8 | x8 | x8 | x8 | x8 | x8 | x8 ||[K:Eb] x8 | x8 | x8 | %198
 x8 | x8 | x8 | x8 | x8 | x8 | x8 | x8 | x8 | x5[K:treble] x3 |[K:bass] x8 | x8 | x8 | x8 | x8 |] %213
V:7
 x8 | x8 | x8 | x8 || x8 | x2[K:bass] x6 | x8 | x8 | x8 | x8 | x8 |[K:treble] x8 | x4 [_DG]4 | %13
 E2 C2 _D2 (3x GF | _F4 E3 =F | x8 | [Fg]8 | x8 | x8 | [Be]8- | B8 | B4 G2 =A2 | F8 | =A4 G2 F2 | %24
 x8 | [Cc]8- | x4 B,4 |[K:bass] z4 z2 (.A,2 | B,4) z4 | B,2 z2 z2 [F,_A,]2 |[K:treble] G,4 G2 FE | %31
 F2 D2 z2 .[=A,E]2 | (D4 C2- (3CDE) | F2 D2 z2 (.[=A,E]2 | (.D4) C2- (3CDE) | =EFG_A ^FG E2 | %36
 B6 x2 |[I:staff +1] =EF[I:staff -1]G_A[I:staff +1] F,_A,[I:staff -1]DF | _B2 x4 _D2 | C8 | x8 | %41
 x4 [A_B]4 | B2 x4 D2 | x6 C2 | E2 z2 d2 z2 | c4 c4 | [ce]6 =A2 | B4 [FB-]4 | B3 =A G2 FE | x8 | %50
 [E_c]4 [_FB]4 | [_C-_G]8 | [C_D]4 _F4 | [_Ge]2 [E_c]2 [_DB]4 | A2 _C2 _D4 | =C4 C2 x2 | %56
 x4 =f=eBd | ([c_e]2 =A2 B4-) | B2 =AB [Ac][GB][FA][EG] | D2 B,2 F^FGE | z2 B,2 F^FGC | %61
 x2 D2 x2 (.[=A,E]2 | .D4) C2- (3C!<(!DE!<)! | F2 D2 z2 (B,2 | =B,4) F4 | E4 z ED>=B, | %66
 (G2 C2) x2 F2 | G2 C2 z ED>=B, | DC[I:staff +1]E,>A, x4 | %69
 (=F,[I:staff -1]ED>=A, CB,[I:staff +1]D,>G,) |[I:staff -1] E4 F2 D2 | %71
[I:staff +1] (F,[I:staff -1]ED>=A, CB,[I:staff +1]D,_A,) | %72
[I:staff -1] FE[I:staff +1]G,[I:staff -1]C B =A2 G | [^Fd]3 [G^c] [G=c]3 [=FB] | E2 [GB]2 =A4 | %75
 x8 | D3 ^C =C3 x | D3 ^C =C3 x | D4 x4 | B(=A A/)[I:staff +1]D/E/F/[I:staff -1] (G3 =E) | %80
 _E4- E x3 | E8 | [CF]8 | c7/2 d/ B7/2 E/ | [EB]3 (G/ A/4B/4 A3) D | E8 | [CD]4 x4 ||[K:C] x8 | %88
 x8 | c/B/d/c/e/B/^f/A/ B/A/c/B/d/A/e/G/ | .A.B.c.d .G.A.B.c | x8 | x8 ||[K:Bb] x8 | x8 | x8 | x8 | %97
 B4- B2 =E2 | x7 F- | F3 =E D2 ^C2 | x8 | x8 | x4 G,4 | x8 | x8 | x8 | x8 || B,2 x2 D4 | B,2 x6 | %109
 B,4 C3 B, | A,B, C2 ^F2 (3A,C z | G,2 x2 B,2 x2 | C2- (3:2:2C B,2 D2- (3:2:2D C2 | %113
 E2 G2- G^G [CA]2 | D8 | F2 =E2 D x (3D[I:staff +1]B,=G, |[I:staff -1] [=EB]2 C>D D4 | %117
 (3=FGA (3B^cd d x3 | (3x (GD (3FCE[I:staff +1] (3B,[I:staff -1]D[I:staff +1]A, (3CB,_A,) | %119
[I:staff -1] z3/2 (3(^C/4D/4E/4) D2 =C2 =B,2 | [G,E]4 C2 x2 | [_A,C]4 [CE]4 | C2- C/ z/ x ^F4 | %123
 x8 | x8 | E2 (6:4:6(C/E/G/c/e/g/ c') z x2 | D6 x2 | F2 =E2 [_E^F]2 (3G=F=E | B2 d2- d2 f2 | x8 | %130
 x4 B4 | B4 [Bf]4 | G2 FE _B4 | e4 c2 x2 | [c^f]4 [dg]4 | [cg]4 [c=e]2 dc | x4 c'4 | a2 x6 | %138
 C x3 =E x3 | FD F2- F-^C=ED | (A^F G2- G=F).=E.D | C x z2 [CA]2 z2 | [DF]2 z2 ([DG]2 C).B, | %143
 F4 [GB]2- [GB] z | F4 G3 F | =EFGF [E^c]3 G | d8 | c4 B4 | A2 G2 F4 | G2 _E2 F2 E2 | E4 A2 c2 | %151
 x8 | x4 [_Ad]2 x2 | E x3 G x3 | _BF _A2- A-=EGF | c=A B2- (B_A TG3/2) F/4G/4 || %156
[K:Eb] !///-!=E2 _A2 =EFG z | !///-!C2 E2 !///-!B,2 =E2 | %158
 !///-!C E C/4E/4C/4E/4=A,/4E/4A,/4E/4 !///-!B, E !///-!_G, B, | x8 | x4 _D2 D>C | E4 =D4 | %162
 E2 _G4 (3.=C._D.E | E2 c2 (B2 _G).C | [A_d]4 A4 | B3 B [c=e]4 | c3 c [cf]4 | [df]4 c3 d | %168
 [G=e][=Af][Bg][c=a] [eb]4 |[I:staff +1] E3 x[I:staff -1] =A,4 | [_A,=B,]4 G,4 | A,4 _D4 | C4 C4 | %173
 C8 || [_AB]8 | x6 D2 | z2 G,2 B,2 x2 | C2 C2 [F_A]2- [FA] z | F4 C4 | D7 E | c3 c F4 | G8 | x8 | %183
 ((a g3) f =e2) z | ((b =a3) g ^f2) z ||[K:C] b4 g4 | [da]3 x5 | x8 | x8 | x4 c2 BA | [GB]4 A4 | %191
 x4 z FD>B, | DC-[I:staff +1]E,>A,[I:staff -1] C2 x2 | DC[I:staff +1]E,>A, x2[I:staff -1] G,2 | %194
 ED-[I:staff +1]F,>_B,[I:staff -1] D2 x2 ||[K:Eb] D2 =A2 B2 =E2 | C2 x4 G,=A, | (B,3 =A, _A,4) | %198
 G,4- G,_A, =A,2 | B,7 =A, | [_A,D]4 B,2 x2 | x8 | x8 | x8 | x8 | x8 | x8 | x8 | x8 | x8 | x8 | %211
 x8 | x8 |] %213
V:8
 x8 | x8 | x8 | x8 || x8 | x2[K:bass] x6 | x8 | x8 | x8 | x8 | x8 |[K:treble] x8 | x8 | x8 | x8 | %15
 x8 | x8 | x8 | x8 | x8 | e4 d4 | e8 | B8 | E8 | x8 | x8 | x8 |[K:bass] x8 | x8 | x8 | %30
[K:treble] x8 | x8 | x8 | x8 | x8 | x8 | x8 | x8 | x8 | x8 | x8 | x8 | x8 | x8 | x8 | x8 | x8 | %47
 x8 | x8 | x8 | x8 | x8 | x8 | x8 | x8 | x8 | x8 | x8 | x8 | x8 | x8 | x8 | x8 | x8 | x8 | x8 | %66
 x8 | x8 | x2 C6 | x8 | x8 | x8 | x8 | x8 | x8 | x8 | x8 | x8 | x8 | x8 | x8 | x8 | x8 | x8 | x8 | %85
 x8 | x8 ||[K:C] x8 | x8 | x8 | x8 | x8 | x8 ||[K:Bb] x8 | x8 | x8 | x8 | x8 | x8 | x8 | x8 | x8 | %102
 x8 | x8 | x8 | x8 | x8 || x8 | x8 | x8 | x8 | x8 | x8 | x8 | x8 | x8 | x8 | x8 | x8 | x8 | x8 | %121
 x8 | x8 | x8 | x8 | x8 | x8 | x8 | x8 | x8 | x8 | x8 | x8 | x8 | x8 | x8 | x8 | x8 | x8 | x8 | %140
 x8 | F2 x6 | x8 | x8 | x8 | x8 | x8 | x8 | x8 | x8 | x8 | x8 | x8 | x8 | x8 | x8 ||[K:Eb] x8 | %157
 x8 | x8 | x8 | x8 | x8 | x8 | x8 | x8 | x8 | x8 | x8 | x8 | x8 | x8 | x8 | x8 | x8 || x8 | x8 | %176
 x8 | x8 | x8 | x8 | x8 | x8 | x8 | x8 | x8 ||[K:C] x8 | x8 | x8 | x8 | x8 | x8 | x8 | x8 | x8 | %194
 x8 ||[K:Eb] x8 | x8 | x8 | x8 | x8 | x8 | b2 x6 | x8 | x8 | x8 | x8 | x8 | x8 | x8 | x8 | x8 | %211
 x8 | x8 |] %213
V:9
 x8 | x8 | x8 | x8 || x8 | x2[K:bass] x6 | x8 | x8 | x8 | x8 | x8 |[K:treble] x8 | x8 | x8 | x8 | %15
 x8 | x8 | x8 | x8 | x8 | x8 | x8 | x8 | x8 | x8 | x8 | x8 |[K:bass] x8 | x8 | x8 |[K:treble] x8 | %31
 x8 | x8 | x8 | x8 | B,4 x4 | x8 | x8 | x8 | x8 | x8 | x8 | x8 | x8 | x8 | x8 | x8 | x8 | x8 | x8 | %50
 x8 | x8 | x8 | x8 | x8 | A3 G x4 | x8 | x8 | x8 | x8 | x8 | x8 | x8 | x8 | x8 | x4 z2 G,2 | %66
 DC-[I:staff +1]E,>A, x4 | x8 | x8 | x8 | x8 | x8 | x8 | x8 | x8 | x8 | x8 | x8 | x8 | x8 | x8 | %81
 x8 | x8 | x8 | x8 | x8 | x8 ||[K:C] x8 | x8 | x8 | x8 | x8 | x8 ||[K:Bb] x8 | x8 | x8 | x8 | %97
[I:staff -1] F8 | x8 | x8 | x8 | x8 | x8 | x8 | x8 | x8 | x8 || x8 | x8 | x8 | x2 (3:2:2A2 G x4 | %111
 x8 | x8 | x2 (3CE z x4 | x8 | x8 | x8 | x8 | x8 | x8 | G3- G/4F/4E/4D/4 x4 | x8 | x8 | x8 | x8 | %125
 x8 | x8 | x8 | x8 | x8 | x4 F2 x2 | x4 F2 x2 | x8 | x8 | x8 | x8 | x8 | x8 | x8 | x8 | x8 | x8 | %142
 x8 | x8 | x4 B2 x2 | x8 | x8 | x8 | x8 | x8 | x8 | x8 | x8 | x8 | x8 | x8 ||[K:Eb] x8 | x8 | x8 | %159
 x8 | x8 | x8 | x8 | x8 | x4 f3 x | ae_gf x4 | f4 x4 | x4 g4 | x8 | x8 | x8 | x8 | x8 | x8 || x8 | %175
 x8 | x8 | x8 | G3 G F3 E | x8 | x4 B3 A | x8 | x8 | x8 | x8 ||[K:C] x8 | x8 | x8 | x8 | x8 | %190
 x4 e3 x | x6 G2 | x4 z FE>B, | x4 z!mp!!<(! GF>^C!<)! | x4 z"_cresc." _BA>E ||[K:Eb] GF x6 | x8 | %197
 x8 | x8 | x8 | x8 | x8 | x8 | x8 | x8 | x8 | x8 | x8 | x8 | x8 | x8 | x8 | x8 |] %213
V:10
 x8 | x8 | x8 | x8 || x8 | x8 | x8 | x8 | x8 | x8 | x8 | x8 | x8 | x8 | x8 | x8 | x8 | x8 | %18
 x4[K:treble] x4 |[K:bass] x8 | x8 | x8 | x8 | x8 | x8 | x8 | x8 | x8 | x8 | x8 | x8 | x8 | x8 | %33
 x8 | x8 | x8 | x8 | x8 | x8 | x8 | x8 | x8 | x8 | x8 | x8 | x8 | x8 | x8 | x8 | x8 | x8 | x8 | %52
 x8 | x8 | x8 | x8 | x8 | x8 | G,2 CB, x4 | x8 | x8 | x8 | x8 | x8 | x8 | x8 | x8 | x8 | x8 | x8 | %70
 x8 | (=A,,2 F,,2) x4 | x8 | x8 | x8 | x8 | x8 | x8 | x8 | x4 B,4 | x8 | E,8 | x8 | x8 | x8 | x8 | %86
 x8 ||[K:C] x8 | x8 | x8 | x8 | x8 | x8 ||[K:Bb] x8 | x8 | x8 | x8 | x8 | x8 | x8 | x8 | %101
 [E,F,]6 E,2- | x8 | x8 | x8 | x8 | x8 || x8 | x8 | (F,3 =E,) x4 | x8 | x8 | x8 | x8 | x8 | x8 | %116
 x8 | x8 | x8 | x8 | x8 | x8 | x8 | x8 | x8 | x103/20[K:treble] x183/64 |[K:bass] x8 | x8 | x8 | %129
 x8 | x14/3[K:treble] x10/3 |[K:bass] x2/3[K:treble] x10/3[K:bass] x2/3[K:treble] x10/3 | %132
[K:bass] x8 | x8 | x2[K:treble] x2[K:bass] x4 | x8 | x8 | C,4 x4 | x8 | x8 | x8 | x8 | x8 | x8 | %144
 x8 | x8 | x8 | x8 | x8 | x8 | x8 | x6[K:treble] x2 | %152
[K:bass] x2[K:treble] x2[K:bass] x2[K:treble] x2 |[K:bass] x8 | x8 | x8 ||[K:Eb] x8 | x8 | x8 | %159
 x8 | x8 | x8 | x4 _G,4- | x8 | x8 | x8 | x8 | x8 | x8 | x8 | x8 | x8 | x8 | x8 || x8 | x8 | x8 | %177
 x8 | x8 | x8 | x8 | x8 | x8 | x5[K:treble] x3 | x2[K:bass] x3[K:treble] x3 ||[K:C] x4[K:bass] x4 | %186
 x8 | x8 | x8 | x8 | x8 | x8 | x8 | x8 | x8 ||[K:Eb] x8 | x8 | x8 | x8 | x8 | x8 | x8 | x8 | x8 | %204
 x8 | x8 | x8 | x5[K:treble] x3 |[K:bass] x8 | x8 | x8 | x8 | x8 |] %213

